icons/icons-svg/toman.svg

<svg id="eZlaq2MyrCG1" xmlns="http://www.w3.org/2000/svg" xmlns:xlink="http://www.w3.org/1999/xlink" viewBox="0 0 14 16" shape-rendering="geometricPrecision" text-rendering="geometricPrecision"><path d="M1.14878,6.91843c.2955,0,.55407-.04701.77569-.14104.22835-.09402.41975-.22162.57422-.38281s.272-.34923.35259-.56414c.08059-.2082.1276-.42982.14103-.66488h-1.00739c-.34252,0-.62459-.03694-.84622-.11082s-.396239-.18133-.523842-.32236-.21827-.30894-.271998-.5037c-.047011-.20148-.070517-.42647-.070517-.67496c0-.2552.036938-.49698.110813-.72532s.181332-.42983.322367-.60444.315647-.31229.523847-.41303c.21491-.10746.46004-.16119.7354-.16119.22163,0,.43318.03694.63466.11082s.37945.1914.53392.35259c.15447.15446.27536.3593.36266.61451.09403.24849.14104.55071.14104.90665v.83614h.9671c.08059,0,.13432.03023.16118.09067.03358.05373.05037.13768.05037.25185c0,.12089-.01679.21155-.05037.272-.02686.05372-.08059.08059-.16118.08059h-.98725c-.01343.32908-.08059.64137-.20148.93688-.11417.2955-.27535.55407-.48355.77569s-.45669.39625-.74547.52385c-.28879.13432-.61452.20148-.97718.20148h-1.067839l-.060444-.68503h1.067843Zm-.251851-3.405c0,.1679.01679.31229.05037.43318.040295.12089.104101.22162.191401.30222.09403.07387.21827.13096.37274.17125.15447.03358.34923.05037.58429.05037h.90666v-.75554c0-.49699-.09738-.85293-.29215-1.06784s-.4634-.32237-.80591-.32237c-.32237,0-.57086.10745-.74548.32237s-.261921.50369-.261921.86636Zm5.372021.95702c.08731,0,.1444.03023.17126.09067.03358.05373.05037.13768.05037.25185c0,.12089-.01679.21155-.05037.272-.02686.05372-.08395.08059-.17126.08059h-1.6622c-.08731,0-.1444-.02687-.17126-.08059-.03358-.05373-.05037-.13768-.05037-.25185c0-.12089.01679-.21156.05037-.272.02686-.06044.08395-.09067.17126-.09067h1.6622Zm1.6626,0c.08731,0,.14439.03023.17126.09067.03358.05373.05037.13768.05037.25185c0,.12089-.01679.21155-.05037.272-.02687.05372-.08395.08059-.17126.08059h-1.6622c-.08731,0-.1444-.02687-.17126-.08059-.03358-.05373-.05037-.13768-.05037-.25185c0-.12089.01679-.21156.05037-.272.02686-.06044.08395-.09067.17126-.09067h1.6622Zm1.6626,0c.08731,0,.14439.03023.17126.09067.03358.05373.05037.13768.05037.25185c0,.12089-.01679.21155-.05037.272-.02687.05372-.08395.08059-.17126.08059h-1.66221c-.0873,0-.14439-.02687-.17125-.08059-.03358-.05373-.05037-.13768-.05037-.25185c0-.12089.01679-.21156.05037-.272.02686-.06044.08395-.09067.17125-.09067h1.66221Zm1.66255,0c.0874,0,.1444.03023.1713.09067.0336.05373.0504.13768.0504.25185c0,.12089-.0168.21155-.0504.272-.0269.05372-.0839.08059-.1713.08059h-1.66216c-.08731,0-.14439-.02687-.17126-.08059-.03358-.05373-.05037-.13768-.05037-.25185c0-.12089.01679-.21156.05037-.272.02687-.06044.08395-.09067.17126-.09067h1.66216Zm.9071,0c.2619,0,.4701-.07051.6246-.21155.1612-.14103.2418-.3358.2418-.58429v-1.39021h.6548v1.39021c0,.47683-.1344.84621-.403,1.10814-.2619.2552-.6212.38281-1.0779.38281h-.947c-.0873,0-.1444-.02687-.1712-.08059-.0336-.05373-.0504-.13768-.0504-.25185c0-.12089.0168-.21156.0504-.272.0268-.06044.0839-.09067.1712-.09067h.9067Zm1.6219-3.475516h-.8059v-.715251h.8059v.715251Zm-1.2794,0h-.8059v-.715251h.8059v.715251ZM5.64177,12.9641c0,.3626-.05709.7018-.17126,1.0174-.11417.3224-.27871.6011-.49362.8362-.21491.2418-.47684.4332-.78577.5742-.30222.141-.64474.2116-1.02755.2116h-.59436c-.75219,0-1.33648-.2317-1.752873-.6951s-.624586-1.0981-.624586-1.904v-1.763h.644734v1.7428c0,.2888.03358.5507.10074.7858.073875.2351.184685.4365.332445.6044.15446.1746.34587.309.57421.403s.5037.141.82607.141h.44325c.31565,0,.59101-.0537.82607-.1612.23506-.1007.42982-.2384.58429-.413.16118-.1746.27871-.3794.35259-.6145.08059-.2351.12088-.4802.12088-.7354v-2.7099h.64474v2.6797ZM3.21394,10.0628h-.84621v-.73542h.84621v.73542Zm5.03132,3.1028c-.17462,0-.34252-.0235-.5037-.0706-.16118-.0537-.30558-.141-.43318-.2619-.12089-.1209-.21827-.2787-.29214-.4735-.07388-.2014-.11082-.4499-.11082-.7454v-4.6945h.65481v4.5736c0,.2821.06044.5171.18133.7052.1276.1813.33244.272.61451.272h.17126c.14775,0,.22163.1141.22163.3425c0,.235-.07388.3526-.22163.3526h-.28207Zm.44798-.6951c.26192,0,.46004-.0638.59436-.1915.13432-.1276.20148-.2988.20148-.5137v-.3828c0-.5843.14775-1.041.44325-1.3701.30227-.32908.71857-.49362,1.24917-.49362.2754,0,.5171.04365.7253.13096s.3795.21156.5138.37276c.141.1612.2451.3526.3123.5742s.1007.4668.1007.7354c0,.5776-.1511,1.0275-.4533,1.3499s-.7152.4836-1.2391.4836c-.2686,0-.5272-.0504-.7757-.1512-.2485-.1074-.44324-.2955-.58427-.5641-.06045.1545-.13432.2787-.22163.3727s-.17798.1679-.272.2217c-.09402.047-.19476.0806-.30222.1007-.10074.0134-.19812.0202-.29214.0202h-.16119c-.0873,0-.14439-.0269-.17125-.0806-.03358-.0538-.05037-.1377-.05037-.2519c0-.1209.01679-.2115.05037-.272.02686-.0604.08395-.0906.17125-.0906h.16119Zm3.49566-1.078c0-.3492-.0772-.6313-.2317-.8462-.1545-.2216-.4197-.3324-.7958-.3324-.6985,0-1.0477.4063-1.0477,1.2189c0,.3426.094.6011.282.7757.1948.1746.4433.262.7455.262.3425,0,.6011-.0941.7757-.2821.1813-.1881.272-.4533.272-.7959Z"/></svg>

<svg width="24" height="24" viewBox="0 0 24 24" fill="none" xmlns="http://www.w3.org/2000/svg">
      <path className="currentColor" d="M1.14878 6.91843C1.44428 6.91843 1.70285 6.87142 1.92447 6.77739C2.15282 6.68337 2.34422 6.55577 2.49869 6.39458C2.65316 6.2334 2.77069 6.04535 2.85128 5.83044C2.93187 5.62224 2.97888 5.40062 2.99231 5.16556H1.98492C1.6424 5.16556 1.36033 5.12862 1.1387 5.05474C0.917077 4.98087 0.742461 4.87341 0.614858 4.73238C0.487254 4.59134 0.396588 4.42344 0.34286 4.22868C0.295849 4.0272 0.272343 3.80221 0.272343 3.55372C0.272343 3.29852 0.309281 3.05674 0.383156 2.8284C0.457032 2.60005 0.564488 2.39857 0.705523 2.22396C0.846559 2.04934 1.02117 1.91167 1.22937 1.81093C1.44428 1.70347 1.68941 1.64974 1.96477 1.64974C2.1864 1.64974 2.39795 1.68668 2.59943 1.76056C2.80091 1.83443 2.97888 1.95196 3.13335 2.11315C3.28782 2.26761 3.40871 2.47245 3.49601 2.72766C3.59004 2.97615 3.63705 3.27837 3.63705 3.63431V4.47045H4.60415C4.68474 4.47045 4.73847 4.50068 4.76533 4.56112C4.79891 4.61485 4.8157 4.6988 4.8157 4.81297C4.8157 4.93386 4.79891 5.02452 4.76533 5.08497C4.73847 5.13869 4.68474 5.16556 4.60415 5.16556H3.6169C3.60347 5.49464 3.53631 5.80693 3.41542 6.10244C3.30125 6.39794 3.14007 6.65651 2.93187 6.87813C2.72368 7.09976 2.47518 7.27438 2.1864 7.40198C1.89761 7.5363 1.57188 7.60346 1.20922 7.60346H0.141381L0.0809373 6.91843H1.14878ZM0.896929 3.51343C0.896929 3.68133 0.913719 3.82572 0.947299 3.94661C0.987594 4.0675 1.0514 4.16823 1.1387 4.24883C1.23273 4.3227 1.35697 4.37979 1.51144 4.42008C1.66591 4.45366 1.86067 4.47045 2.09573 4.47045H3.00239V3.71491C3.00239 3.21792 2.90501 2.86198 2.71024 2.64707C2.51548 2.43215 2.24684 2.3247 1.90433 2.3247C1.58196 2.3247 1.33347 2.43215 1.15885 2.64707C0.984237 2.86198 0.896929 3.15076 0.896929 3.51343ZM6.26895 4.47045C6.35626 4.47045 6.41335 4.50068 6.44021 4.56112C6.47379 4.61485 6.49058 4.6988 6.49058 4.81297C6.49058 4.93386 6.47379 5.02452 6.44021 5.08497C6.41335 5.13869 6.35626 5.16556 6.26895 5.16556H4.60675C4.51944 5.16556 4.46235 5.13869 4.43549 5.08497C4.40191 5.03124 4.38512 4.94729 4.38512 4.83312C4.38512 4.71223 4.40191 4.62156 4.43549 4.56112C4.46235 4.50068 4.51944 4.47045 4.60675 4.47045H6.26895ZM7.93155 4.47045C8.01886 4.47045 8.07594 4.50068 8.10281 4.56112C8.13639 4.61485 8.15318 4.6988 8.15318 4.81297C8.15318 4.93386 8.13639 5.02452 8.10281 5.08497C8.07594 5.13869 8.01886 5.16556 7.93155 5.16556H6.26935C6.18204 5.16556 6.12495 5.13869 6.09809 5.08497C6.06451 5.03124 6.04772 4.94729 6.04772 4.83312C6.04772 4.71223 6.06451 4.62156 6.09809 4.56112C6.12495 4.50068 6.18204 4.47045 6.26935 4.47045H7.93155ZM9.59415 4.47045C9.68146 4.47045 9.73854 4.50068 9.76541 4.56112C9.79899 4.61485 9.81578 4.6988 9.81578 4.81297C9.81578 4.93386 9.79899 5.02452 9.76541 5.08497C9.73854 5.13869 9.68146 5.16556 9.59415 5.16556H7.93194C7.84464 5.16556 7.78755 5.13869 7.76069 5.08497C7.72711 5.03124 7.71032 4.94729 7.71032 4.83312C7.71032 4.71223 7.72711 4.62156 7.76069 4.56112C7.78755 4.50068 7.84464 4.47045 7.93194 4.47045H9.59415ZM11.2567 4.47045C11.3441 4.47045 11.4011 4.50068 11.428 4.56112C11.4616 4.61485 11.4784 4.6988 11.4784 4.81297C11.4784 4.93386 11.4616 5.02452 11.428 5.08497C11.4011 5.13869 11.3441 5.16556 11.2567 5.16556H9.59454C9.50723 5.16556 9.45015 5.13869 9.42328 5.08497C9.3897 5.03124 9.37291 4.94729 9.37291 4.83312C9.37291 4.71223 9.3897 4.62156 9.42328 4.56112C9.45015 4.50068 9.50723 4.47045 9.59454 4.47045H11.2567ZM12.1638 4.47045C12.4257 4.47045 12.6339 4.39994 12.7884 4.2589C12.9496 4.11787 13.0302 3.9231 13.0302 3.67461V2.2844H13.685V3.67461C13.685 4.15144 13.5506 4.52082 13.282 4.78275C13.0201 5.03795 12.6608 5.16556 12.2041 5.16556H11.2571C11.1698 5.16556 11.1127 5.13869 11.0859 5.08497C11.0523 5.03124 11.0355 4.94729 11.0355 4.83312C11.0355 4.71223 11.0523 4.62156 11.0859 4.56112C11.1127 4.50068 11.1698 4.47045 11.2571 4.47045H12.1638ZM13.7857 0.994934H12.9798V0.279683H13.7857V0.994934ZM12.5063 0.994934H11.7004V0.279683H12.5063V0.994934ZM5.64177 12.9641C5.64177 13.3267 5.58468 13.6659 5.47051 13.9815C5.35634 14.3039 5.1918 14.5826 4.97689 14.8177C4.76198 15.0595 4.50005 15.2509 4.19112 15.3919C3.8889 15.5329 3.54638 15.6035 3.16357 15.6035H2.56921C1.81702 15.6035 1.23273 15.3718 0.816337 14.9084C0.399946 14.445 0.191751 13.8103 0.191751 13.0044V11.2414H0.836485V12.9842C0.836485 13.273 0.870065 13.5349 0.937225 13.77C1.0111 14.0051 1.12191 14.2065 1.26967 14.3744C1.42413 14.549 1.61554 14.6834 1.84388 14.7774C2.07223 14.8714 2.34758 14.9184 2.66995 14.9184H3.1132C3.42885 14.9184 3.70421 14.8647 3.93927 14.7572C4.17433 14.6565 4.36909 14.5188 4.52356 14.3442C4.68474 14.1696 4.80227 13.9648 4.87615 13.7297C4.95674 13.4946 4.99703 13.2495 4.99703 12.9943V10.2844H5.64177V12.9641ZM3.21394 10.0628H2.36773V9.32738H3.21394V10.0628ZM8.24526 13.1656C8.07064 13.1656 7.90274 13.1421 7.74156 13.095C7.58038 13.0413 7.43598 12.954 7.30838 12.8331C7.18749 12.7122 7.09011 12.5544 7.01624 12.3596C6.94236 12.1582 6.90542 11.9097 6.90542 11.6142V6.9197H7.56023V11.4933C7.56023 11.7754 7.62067 12.0104 7.74156 12.1985C7.86916 12.3798 8.074 12.4705 8.35607 12.4705H8.52733C8.67508 12.4705 8.74896 12.5846 8.74896 12.813C8.74896 13.048 8.67508 13.1656 8.52733 13.1656H8.24526ZM8.69324 12.4705C8.95516 12.4705 9.15328 12.4067 9.2876 12.279C9.42192 12.1514 9.48908 11.9802 9.48908 11.7653V11.3825C9.48908 10.7982 9.63683 10.3415 9.93233 10.0124C10.2346 9.68332 10.6509 9.51878 11.1815 9.51878C11.4569 9.51878 11.6986 9.56243 11.9068 9.64974C12.115 9.73705 12.2863 9.8613 12.4206 10.0225C12.5616 10.1837 12.6657 10.3751 12.7329 10.5967C12.8001 10.8183 12.8336 11.0635 12.8336 11.3321C12.8336 11.9097 12.6825 12.3596 12.3803 12.682C12.0781 13.0044 11.6651 13.1656 11.1412 13.1656C10.8726 13.1656 10.614 13.1152 10.3655 13.0144C10.117 12.907 9.92226 12.7189 9.78123 12.4503C9.72078 12.6048 9.64691 12.729 9.5596 12.823C9.47229 12.9171 9.38162 12.9909 9.2876 13.0447C9.19358 13.0917 9.09284 13.1253 8.98538 13.1454C8.88464 13.1588 8.78726 13.1656 8.69324 13.1656H8.53205C8.44475 13.1656 8.38766 13.1387 8.3608 13.085C8.32722 13.0312 8.31043 12.9473 8.31043 12.8331C8.31043 12.7122 8.32722 12.6216 8.3608 12.5611C8.38766 12.5007 8.44475 12.4705 8.53205 12.4705H8.69324ZM12.1889 11.3925C12.1889 11.0433 12.1117 10.7612 11.9572 10.5463C11.8027 10.3247 11.5375 10.2139 11.1614 10.2139C10.4629 10.2139 10.1137 10.6202 10.1137 11.4328C10.1137 11.7754 10.2077 12.0339 10.3957 12.2085C10.5905 12.3831 10.839 12.4705 11.1412 12.4705C11.4837 12.4705 11.7423 12.3764 11.9169 12.1884C12.0982 12.0003 12.1889 11.7351 12.1889 11.3925Z" fill="currentColor"></path>
</svg>
